; generated by Slic3r 0.9.9 on 2013-06-03 at 21:47:35

; layer_height = 0.3
; perimeters = 2
; top_solid_layers = 3
; bottom_solid_layers = 2
; fill_density = 0.2
; perimeter_speed = 60
; infill_speed = 60
; travel_speed = 150
; nozzle_diameter = 0.5
; filament_diameter = 2.95
; extrusion_multiplier = 1
; perimeters extrusion width = 0.66mm
; infill extrusion width = 0.66mm
; solid infill extrusion width = 0.66mm
; top infill extrusion width = 0.42mm
; first layer extrusion width = 0.28mm

G21 ; set units to millimeters
M107
G28 ; home all axes
M220 S85 ; speed at 85%
G90 ; use absolute coordinates
G92 E0
M82 ; use absolute distances for extrusion
G1 F2700.000 E-1.00000
G92 E0
G1 Z0.200 F9000.000
G1 X48.185 Y44.570
G1 F2700.000 E1.00000
G1 X49.295 Y43.460 F1800.000 E1.01503
G1 X50.045 Y42.810 E1.02453
G1 X50.885 Y42.300 E1.03394
G1 X52.275 Y41.590 E1.04889
G1 X53.205 Y41.200 E1.05854
G1 X54.185 Y40.970 E1.06818
G1 X55.735 Y40.730 E1.08320
G1 X56.705 Y40.650 E1.09252
G1 X122.695 Y40.650 E1.72435
G1 X123.665 Y40.730 E1.73367
G1 X125.215 Y40.970 E1.74869
G1 X125.855 Y41.100 E1.75494
G1 X126.485 Y41.300 E1.76127
G1 X126.855 Y41.440 E1.76506
G1 X127.705 Y41.840 E1.77405
G1 X128.725 Y42.410 E1.78524
G1 X129.245 Y42.730 E1.79109
G1 X129.735 Y43.110 E1.79702
G1 X130.335 Y43.620 E1.80456
G1 X131.055 Y44.340 E1.81431
G1 X131.565 Y44.940 E1.82185
G1 X131.945 Y45.430 E1.82779
G1 X132.265 Y45.950 E1.83364
G1 X132.975 Y47.220 E1.84757
G1 X153.635 Y88.430 E2.28895
G1 X153.995 Y89.340 E2.29832
G1 X154.225 Y90.280 E2.30759
G1 X154.535 Y92.240 E2.32659
G1 X154.615 Y93.230 E2.33610
G1 X154.535 Y94.210 E2.34551
G1 X154.155 Y96.560 E2.36830
G1 X147.735 Y125.640 E2.65344
G1 X147.575 Y126.220 E2.65920
G1 X146.865 Y128.430 E2.68143
G1 X146.625 Y129.050 E2.68779
G1 X146.325 Y129.650 E2.69421
G1 X145.165 Y131.660 E2.71643
G1 X144.795 Y132.230 E2.72294
G1 X144.375 Y132.750 E2.72934
G1 X142.815 Y134.470 E2.75157
G1 X142.355 Y134.930 E2.75780
G1 X141.855 Y135.330 E2.76393
G1 X139.975 Y136.700 E2.78621
G1 X139.415 Y137.070 E2.79263
G1 X138.815 Y137.370 E2.79906
G1 X136.705 Y138.310 E2.82117
G1 X136.085 Y138.550 E2.82754
G1 X135.445 Y138.720 E2.83388
G1 X133.175 Y139.200 E2.85609
G1 X132.525 Y139.300 E2.86239
G1 X131.865 Y139.340 E2.86872
G1 X129.535 Y139.340 E2.89103
G1 X128.515 Y139.260 E2.90083
G1 X108.475 Y136.000 E3.09523
G1 X108.125 Y135.930 E3.09864
G1 X33.705 Y119.480 E3.82839
G1 X32.955 Y119.290 E3.83580
G1 X32.045 Y119.000 E3.84495
G1 X31.465 Y118.760 E3.85096
G1 X30.655 Y118.350 E3.85965
G1 X29.635 Y117.720 E3.87113
G1 X29.185 Y117.360 E3.87665
G1 X28.715 Y116.950 E3.88262
G1 X28.065 Y116.290 E3.89149
G1 X27.655 Y115.810 E3.89753
G1 X27.095 Y115.040 E3.90665
G1 X26.765 Y114.510 E3.91263
G1 X26.285 Y113.590 E3.92256
G1 X26.045 Y113.010 E3.92857
G1 X25.755 Y112.100 E3.93772
G1 X25.605 Y111.490 E3.94373
G1 X25.495 Y110.940 E3.94910
G1 X25.435 Y110.380 E3.95449
G1 X25.375 Y109.350 E3.96437
G1 X25.375 Y75.800 E4.28560
G1 X25.535 Y74.410 E4.29900
G1 X25.985 Y73.090 E4.31235
G1 X26.725 Y71.900 E4.32577
G1 X47.675 Y45.140 E4.65117
G1 X48.152 Y44.607 E4.65802
G1 F2700.000 E3.65802
G92 E0
G1 X124.347 Y116.348 F9000.000
G1 F2700.000 E1.00000
M204 S1500
G1 X125.880 Y114.990 F1800.000 E1.01961
G1 X127.693 Y114.038 E1.03921
G1 X129.681 Y113.548 E1.05882
G1 X131.729 Y113.548 E1.07843
G1 X133.717 Y114.038 E1.09803
G1 X135.530 Y114.990 E1.11764
G1 X136.874 Y116.180 E1.13483
G1 X137.063 Y116.348 E1.13725
G1 X138.226 Y118.033 E1.15685
G1 X138.953 Y119.948 E1.17646
G1 X139.199 Y121.980 E1.19607
G1 X138.953 Y124.013 E1.21568
G1 X138.226 Y125.928 E1.23528
G1 X137.063 Y127.613 E1.25489
G1 X135.530 Y128.971 E1.27450
G1 X133.717 Y129.923 E1.29410
G1 X131.729 Y130.413 E1.31371
G1 X129.681 Y130.413 E1.33332
G1 X127.693 Y129.923 E1.35292
G1 X125.880 Y128.971 E1.37253
G1 X124.347 Y127.613 E1.39214
G1 X123.184 Y125.928 E1.41174
G1 X122.457 Y124.013 E1.43135
G1 X122.211 Y121.980 E1.45096
G1 X122.457 Y119.948 E1.47057
G1 X123.184 Y118.033 E1.49017
G1 X124.319 Y116.388 E1.50931
M204 S3000
G1 X124.594 Y116.566 F9000.000
M204 S1500
G1 X126.067 Y115.261 F1260.000 E1.52816
G1 X127.810 Y114.346 E1.54700
G1 X129.721 Y113.875 E1.56585
G1 X131.689 Y113.875 E1.58469
G1 X133.600 Y114.346 E1.60354
G1 X135.343 Y115.261 E1.62239
G1 X136.657 Y116.425 E1.63919
G1 X136.816 Y116.566 E1.64123
G1 X137.935 Y118.186 E1.66008
G1 X138.633 Y120.026 E1.67892
G1 X138.870 Y121.980 E1.69777
G1 X138.633 Y123.934 E1.71662
G1 X137.935 Y125.775 E1.73546
G1 X136.816 Y127.395 E1.75431
G1 X135.343 Y128.700 E1.77315
G1 X133.600 Y129.615 E1.79200
G1 X131.689 Y130.086 E1.81085
G1 X129.721 Y130.086 E1.82969
G1 X127.810 Y129.615 E1.84854
G1 X126.067 Y128.700 E1.86738
G1 X124.594 Y127.395 E1.88623
G1 X123.475 Y125.775 E1.90508
G1 X122.777 Y123.934 E1.92392
G1 X122.540 Y121.980 E1.94277
G1 X122.777 Y120.026 E1.96161
G1 X123.475 Y118.186 E1.98046
G1 X124.566 Y116.607 E1.99884
M204 S3000
G1 X124.503 Y116.252 F9000.000
G1 X123.487 Y114.232
M204 S1500
G1 X123.608 Y114.098 F1800.000 E2.00056
G1 X125.402 Y112.795 E2.02180
G1 X127.493 Y111.864 E2.04371
G1 X127.493 Y111.879 E2.04386
G1 X129.596 Y111.432 E2.06445
G1 X131.814 Y111.432 E2.08568
G1 X133.983 Y111.893 E2.10691
G1 X136.008 Y112.795 E2.12814
G1 X137.802 Y114.098 E2.14937
G1 X139.286 Y115.746 E2.17060
G1 X140.395 Y117.666 E2.19183
G1 X141.080 Y119.775 E2.21306
G1 X141.311 Y121.980 E2.23429
G1 X141.080 Y124.186 E2.25552
G1 X140.395 Y126.294 E2.27675
G1 X139.286 Y128.215 E2.29798
G1 X137.802 Y129.863 E2.31921
G1 X136.008 Y131.166 E2.34044
G1 X133.983 Y132.068 E2.36167
G1 X131.814 Y132.529 E2.38291
G1 X129.596 Y132.529 E2.40414
G1 X127.427 Y132.068 E2.42537
G1 X125.402 Y131.166 E2.44660
G1 X123.608 Y129.863 E2.46783
G1 X122.124 Y128.215 E2.48906
G1 X121.015 Y126.294 E2.51029
G1 X120.330 Y124.186 E2.53152
G1 X120.099 Y121.980 E2.55275
G1 X120.330 Y119.775 E2.57398
G1 X121.015 Y117.666 E2.59521
G1 X122.124 Y115.746 E2.61644
G1 X123.454 Y114.269 E2.63547
M204 S3000
G1 X123.244 Y114.013 F9000.000
M204 S1500
G1 X123.388 Y113.854 F1260.000 E2.63753
G1 X125.237 Y112.510 E2.65942
G1 X127.326 Y111.580 E2.68131
G1 X129.562 Y111.105 E2.70320
G1 X131.848 Y111.105 E2.72509
G1 X134.084 Y111.580 E2.74698
G1 X136.173 Y112.510 E2.76887
G1 X138.022 Y113.854 E2.79076
G1 X139.552 Y115.553 E2.81265
G1 X140.695 Y117.533 E2.83453
G1 X141.401 Y119.707 E2.85642
G1 X141.640 Y121.980 E2.87831
G1 X141.401 Y124.254 E2.90020
G1 X140.695 Y126.428 E2.92209
G1 X139.552 Y128.408 E2.94398
G1 X138.022 Y130.107 E2.96587
G1 X136.173 Y131.451 E2.98776
G1 X134.084 Y132.381 E3.00965
G1 X131.848 Y132.856 E3.03154
G1 X129.562 Y132.856 E3.05343
G1 X127.326 Y132.381 E3.07531
G1 X125.237 Y131.451 E3.09720
G1 X123.388 Y130.107 E3.11909
G1 X121.858 Y128.408 E3.14098
G1 X120.715 Y126.428 E3.16287
G1 X120.009 Y124.254 E3.18476
G1 X119.770 Y121.980 E3.20665
G1 X120.009 Y119.707 E3.22854
G1 X120.715 Y117.533 E3.25043
G1 X121.858 Y115.553 E3.27232
G1 X123.211 Y114.050 E3.29168
M204 S3000
G1 X123.454 Y114.058 F9000.000
G1 F2700.000 E2.29168
G92 E0
G1 X122.705 Y55.927 F9000.000
G1 F2700.000 E1.00000
M204 S1500
G1 X121.485 Y55.734 F900.000 E1.01182
G1 X120.385 Y55.174 E1.02365
G1 X119.512 Y54.300 E1.03547
G1 X118.951 Y53.200 E1.04729
G1 X118.758 Y51.980 E1.05912
G1 X118.951 Y50.761 E1.07094
G1 X119.512 Y49.660 E1.08276
G1 X120.385 Y48.787 E1.09459
G1 X121.485 Y48.227 E1.10641
G1 X122.705 Y48.033 E1.11824
G1 X123.925 Y48.227 E1.13006
G1 X125.025 Y48.787 E1.14188
G1 X125.898 Y49.660 E1.15371
G1 X126.459 Y50.761 E1.16553
G1 X126.652 Y51.980 E1.17735
G1 X126.459 Y53.200 E1.18918
G1 X125.898 Y54.300 E1.20100
G1 X125.025 Y55.174 E1.21282
G1 X123.925 Y55.734 E1.22465
G1 X122.753 Y55.920 E1.23600
M204 S3000
G1 X122.705 Y55.596 F9000.000
M204 S1500
G1 X121.588 Y55.419 F900.000 E1.24683
G1 X120.580 Y54.906 E1.25766
G1 X119.780 Y54.106 E1.26849
G1 X119.266 Y53.098 E1.27933
G1 X119.089 Y51.980 E1.29016
G1 X119.266 Y50.863 E1.30099
G1 X119.780 Y49.855 E1.31182
G1 X120.580 Y49.055 E1.32265
G1 X121.588 Y48.542 E1.33348
G1 X122.705 Y48.365 E1.34431
G1 X123.822 Y48.542 E1.35514
G1 X124.830 Y49.055 E1.36597
G1 X125.630 Y49.855 E1.37681
G1 X126.144 Y50.863 E1.38764
G1 X126.321 Y51.980 E1.39847
G1 X126.144 Y53.098 E1.40930
G1 X125.630 Y54.106 E1.42013
G1 X124.830 Y54.906 E1.43096
G1 X123.822 Y55.419 E1.44179
G1 X122.753 Y55.588 E1.45215
M204 S3000
G1 X122.527 Y55.870 F9000.000
G1 F2700.000 E0.45215
G92 E0
G1 X81.166 Y51.480 F9000.000
G1 F2700.000 E1.00000
M204 S1500
G1 X80.781 Y52.665 F900.000 E1.01193
G1 X79.773 Y53.398 E1.02386
G1 X78.526 Y53.398 E1.03579
G1 X77.518 Y52.665 E1.04772
G1 X77.133 Y51.480 E1.05965
G1 X77.518 Y50.295 E1.07158
G1 X78.526 Y49.563 E1.08351
G1 X79.772 Y49.563 E1.09544
G1 X80.781 Y50.295 E1.10737
G1 X81.150 Y51.434 E1.11883
M204 S3000
G1 X80.822 Y51.480 F9000.000
M204 S1500
G1 X80.502 Y52.463 F900.000 E1.12873
G1 X79.666 Y53.071 E1.13862
G1 X78.633 Y53.071 E1.14851
G1 X77.797 Y52.463 E1.15841
G1 X77.477 Y51.480 E1.16830
G1 X77.797 Y50.498 E1.17820
G1 X78.633 Y49.890 E1.18809
G1 X79.666 Y49.890 E1.19798
G1 X80.502 Y50.498 E1.20788
G1 X80.806 Y51.434 E1.21730
M204 S3000
G1 X81.086 Y51.673 F9000.000
G1 X90.833 Y51.480
M204 S1500
G1 X91.218 Y50.295 F900.000 E1.22923
G1 X92.227 Y49.563 E1.24116
G1 X93.472 Y49.563 E1.25309
G1 X94.481 Y50.295 E1.26502
G1 X94.756 Y51.142 E1.27354
G1 X94.893 Y51.131 E1.27486
G1 X94.951 Y50.761 E1.27845
G1 X95.512 Y49.660 E1.29027
G1 X96.385 Y48.787 E1.30210
G1 X97.485 Y48.227 E1.31392
G1 X98.705 Y48.033 E1.32574
G1 X99.925 Y48.227 E1.33757
G1 X101.025 Y48.787 E1.34939
G1 X101.898 Y49.660 E1.36122
G1 X102.459 Y50.761 E1.37304
G1 X102.652 Y51.980 E1.38486
G1 X102.459 Y53.200 E1.39669
G1 X101.898 Y54.300 E1.40851
G1 X101.025 Y55.174 E1.42033
G1 X99.925 Y55.734 E1.43216
G1 X98.705 Y55.927 E1.44398
G1 X97.485 Y55.734 E1.45580
G1 X96.385 Y55.174 E1.46763
G1 X95.512 Y54.300 E1.47945
G1 X94.951 Y53.200 E1.49127
G1 X94.786 Y52.158 E1.50138
G1 X94.649 Y52.147 E1.50270
G1 X94.481 Y52.665 E1.50792
G1 X93.472 Y53.398 E1.51985
G1 X92.227 Y53.398 E1.53178
G1 X91.218 Y52.665 E1.54371
G1 X90.849 Y51.527 E1.55517
M204 S3000
G1 X91.177 Y51.480 F9000.000
M204 S1500
G1 X91.497 Y50.498 F900.000 E1.56506
G1 X92.333 Y49.890 E1.57496
G1 X93.366 Y49.890 E1.58485
G1 X94.202 Y50.498 E1.59475
G1 X94.522 Y51.480 E1.60464
G1 X94.202 Y52.463 E1.61453
G1 X93.366 Y53.071 E1.62443
G1 X92.333 Y53.071 E1.63432
G1 X91.497 Y52.463 E1.64422
G1 X91.193 Y51.527 E1.65364
M204 S3000
G1 X90.913 Y51.288 F9000.000
G1 F2700.000 E0.65364
G92 E0
G1 X95.089 Y51.980 F9000.000
G1 F2700.000 E1.00000
M204 S1500
G1 X95.266 Y50.863 F900.000 E1.01083
G1 X95.780 Y49.855 E1.02166
G1 X96.580 Y49.055 E1.03249
G1 X97.588 Y48.542 E1.04332
G1 X98.705 Y48.365 E1.05416
G1 X99.822 Y48.542 E1.06499
G1 X100.830 Y49.055 E1.07582
G1 X101.630 Y49.855 E1.08665
G1 X102.144 Y50.863 E1.09748
G1 X102.321 Y51.980 E1.10831
G1 X102.144 Y53.098 E1.11914
G1 X101.630 Y54.106 E1.12997
G1 X100.830 Y54.906 E1.14080
G1 X99.822 Y55.419 E1.15164
G1 X98.705 Y55.596 E1.16247
G1 X97.588 Y55.419 E1.17330
G1 X96.580 Y54.906 E1.18413
G1 X95.780 Y54.106 E1.19496
G1 X95.266 Y53.098 E1.20579
G1 X95.097 Y52.029 E1.21615
M204 S3000
G1 X94.815 Y51.802 F9000.000
G1 F2700.000 E0.21615
G92 E0
G1 X110.214 Y56.490 F9000.000
G1 F2700.000 E1.00000
M204 S1500
G1 X120.321 Y56.490 F1800.000 E1.09677
G1 X124.544 Y63.118 E1.17202
G1 X128.592 Y70.894 E1.25596
G1 X131.947 Y78.993 E1.33990
G1 X134.702 Y87.733 E1.42764
G1 X126.705 Y88.082 E1.50429
G1 X112.717 Y87.471 E1.63834
G1 X112.496 Y87.442 E1.64048
G1 X112.487 Y87.549 E1.64151
G1 X111.465 Y87.387 E1.65142
G1 X110.214 Y87.586 E1.66354
G1 X110.214 Y56.539 E1.96081
M204 S3000
G1 X110.541 Y56.817 F9000.000
M204 S1500
G1 X120.142 Y56.817 F1260.000 E2.05273
G1 X124.261 Y63.282 E2.12613
G1 X128.295 Y71.032 E2.20979
G1 X131.639 Y79.105 E2.29345
G1 X134.262 Y87.425 E2.37697
G1 X126.705 Y87.754 E2.44940
G1 X112.746 Y87.145 E2.58318
G1 X112.198 Y87.072 E2.58847
G1 X112.190 Y87.171 E2.58942
G1 X111.465 Y87.056 E2.59645
G1 X110.541 Y87.202 E2.60540
G1 X110.541 Y56.866 E2.89587
M204 S3000
G1 X110.541 Y56.490 F9000.000
G1 F2700.000 E1.89587
G92 E0
G1 X138.494 Y90.041 F9000.000
G1 F2700.000 E1.00000
M204 S1500
G1 X139.750 Y89.278 F900.000 E1.01407
G1 X141.203 Y89.055 E1.02814
G1 X142.615 Y89.400 E1.04206
G1 X145.363 Y90.681 E1.07109
G1 X146.535 Y91.541 E1.08501
G1 X147.297 Y92.797 E1.09908
G1 X147.521 Y94.250 E1.11315
G1 X147.171 Y95.678 E1.12722
G1 X146.302 Y96.863 E1.14130
G1 X145.046 Y97.625 E1.15537
G1 X143.593 Y97.849 E1.16944
G1 X142.182 Y97.503 E1.18336
G1 X139.434 Y96.222 E1.21239
G1 X138.262 Y95.363 E1.22630
G1 X137.499 Y94.106 E1.24038
G1 X137.275 Y92.654 E1.25445
G1 X137.625 Y91.226 E1.26852
G1 X138.465 Y90.080 E1.28212
M204 S3000
G1 X138.444 Y89.717 F9000.000
G1 X116.817 Y92.797
M204 S1500
G1 X117.041 Y94.250 F900.000 E1.29619
G1 X116.691 Y95.678 E1.31027
G1 X116.645 Y95.742 E1.31103
G1 X115.822 Y96.863 E1.32434
G1 X114.566 Y97.625 E1.33841
G1 X113.113 Y97.849 E1.35248
G1 X111.702 Y97.503 E1.36640
G1 X108.954 Y96.222 E1.39543
G1 X107.782 Y95.363 E1.40935
G1 X107.019 Y94.106 E1.42342
G1 X106.795 Y92.654 E1.43749
G1 X107.145 Y91.226 E1.45156
G1 X108.014 Y90.041 E1.46564
G1 X109.270 Y89.278 E1.47971
G1 X110.723 Y89.055 E1.49378
G1 X112.135 Y89.400 E1.50769
G1 X114.883 Y90.681 E1.53673
G1 X116.055 Y91.541 E1.55064
G1 X116.792 Y92.755 E1.56424
M204 S3000
G1 X117.135 Y92.875 F9000.000
G1 F2700.000 E0.56424
G92 E0
G1 X110.723 Y119.535 F9000.000
G1 F2700.000 E1.00000
M204 S1500
G1 X112.135 Y119.880 F900.000 E1.01392
G1 X114.883 Y121.161 E1.04295
G1 X116.055 Y122.021 E1.05686
G1 X116.817 Y123.277 E1.07094
G1 X117.041 Y124.730 E1.08501
G1 X116.691 Y126.158 E1.09908
G1 X115.822 Y127.343 E1.11315
G1 X114.566 Y128.105 E1.12722
G1 X113.113 Y128.329 E1.14130
G1 X111.702 Y127.983 E1.15521
G1 X108.954 Y126.702 E1.18424
G1 X107.782 Y125.843 E1.19816
G1 X107.019 Y124.586 E1.21223
G1 X106.795 Y123.134 E1.22630
G1 X107.145 Y121.706 E1.24038
G1 X108.014 Y120.521 E1.25445
G1 X109.270 Y119.758 E1.26852
G1 X110.674 Y119.542 E1.28212
M204 S3000
G1 X110.916 Y119.271 F9000.000
G1 X110.738 Y119.201
M204 S1500
G1 X109.156 Y119.445 F1800.000 E1.29744
G1 X107.789 Y120.275 E1.31276
G1 X107.703 Y120.391 E1.31414
G1 X106.842 Y121.565 E1.32808
G1 X106.462 Y123.119 E1.34340
G1 X106.706 Y124.700 E1.35872
G1 X107.536 Y126.068 E1.37403
G1 X108.786 Y126.985 E1.38888
G1 X111.593 Y128.294 E1.41853
G1 X113.099 Y128.662 E1.43338
G1 X114.512 Y128.445 E1.44707
G1 X114.570 Y128.626 E1.44889
G1 X113.273 Y129.287 E1.46283
G1 X111.465 Y129.573 E1.48036
G1 X109.657 Y129.287 E1.49789
G1 X108.025 Y128.455 E1.51542
G1 X106.730 Y127.160 E1.53296
G1 X105.803 Y125.342 E1.55250
G1 X105.754 Y125.361 E1.55300
G1 X103.086 Y118.920 E1.61975
G1 X99.999 Y112.990 E1.68377
G1 X79.196 Y112.990 E1.88295
G1 X79.196 Y98.145 E2.02508
G1 X79.297 Y98.115 E2.02609
G1 X80.081 Y99.323 E2.03988
G1 X80.848 Y100.270 E2.05155
G1 X81.710 Y101.132 E2.06322
G1 X82.657 Y101.899 E2.07488
G1 X83.679 Y102.562 E2.08655
G1 X84.764 Y103.115 E2.09822
G1 X85.902 Y103.552 E2.10988
G1 X87.079 Y103.867 E2.12155
G1 X88.283 Y104.058 E2.13322
G1 X89.499 Y104.122 E2.14489
G1 X90.716 Y104.058 E2.15655
G1 X91.920 Y103.867 E2.16822
G1 X93.097 Y103.552 E2.17989
G1 X94.235 Y103.115 E2.19155
G1 X95.320 Y102.562 E2.20322
G1 X96.342 Y101.899 E2.21489
G1 X97.289 Y101.132 E2.22656
G1 X98.151 Y100.270 E2.23822
G1 X98.918 Y99.323 E2.24989
G1 X99.581 Y98.301 E2.26156
G1 X100.135 Y97.215 E2.27323
G1 X100.571 Y96.078 E2.28489
G1 X100.887 Y94.901 E2.29656
G1 X101.077 Y93.697 E2.30823
G1 X101.139 Y92.440 E2.32028
G1 X101.077 Y91.264 E2.33156
G1 X100.887 Y90.060 E2.34323
G1 X100.571 Y88.883 E2.35489
G1 X100.135 Y87.745 E2.36656
G1 X99.581 Y86.660 E2.37823
G1 X98.918 Y85.638 E2.38989
G1 X98.151 Y84.691 E2.40156
G1 X97.289 Y83.829 E2.41323
G1 X96.342 Y83.062 E2.42489
G1 X95.320 Y82.399 E2.43656
G1 X94.235 Y81.845 E2.44823
G1 X93.097 Y81.409 E2.45990
G1 X91.920 Y81.093 E2.47156
G1 X90.716 Y80.903 E2.48323
G1 X89.499 Y80.839 E2.49490
G1 X88.283 Y80.903 E2.50657
G1 X87.079 Y81.093 E2.51823
G1 X85.902 Y81.409 E2.52990
G1 X84.764 Y81.845 E2.54157
