; generated by Slic3r 0.9.9 on 2013-05-25 at 06:53:44

; layer_height = 0.3
; perimeters = 2
; top_solid_layers = 3
; bottom_solid_layers = 2
; fill_density = 0.2
; perimeter_speed = 60
; infill_speed = 60
; travel_speed = 120
; nozzle_diameter = 0.5
; filament_diameter = 2.75
; extrusion_multiplier = 1
; perimeters extrusion width = 0.42mm
; infill extrusion width = 0.42mm
; solid infill extrusion width = 0.36mm
; top infill extrusion width = 0.30mm
; first layer extrusion width = 0.28mm

G21 ; set units to millimeters
G28 ; home all axes
M220 S75 ; speed at 75%
G90 ; use absolute coordinates
G92 E0
M82 ; use absolute distances for extrusion
G1 F2700.000 E-3.00000
G92 E0
G1 Z0.200 F7200.000
G1 X39.295 Y40.685
G1 F2700.000 E3.00000
G1 X40.045 Y40.035 F1800.000 E3.01094
G1 X40.885 Y39.525 E3.02176
G1 X42.275 Y38.815 E3.03896
G1 X43.205 Y38.425 E3.05007
G1 X44.185 Y38.195 E3.06116
G1 X45.735 Y37.955 E3.07844
G1 X46.705 Y37.875 E3.08917
G1 X112.695 Y37.875 E3.81625
G1 X113.665 Y37.955 E3.82697
G1 X115.215 Y38.195 E3.84425
G1 X115.855 Y38.325 E3.85145
G1 X116.485 Y38.525 E3.85873
G1 X116.855 Y38.665 E3.86309
G1 X117.705 Y39.065 E3.87344
G1 X118.725 Y39.635 E3.88632
G1 X119.245 Y39.955 E3.89304
G1 X119.735 Y40.335 E3.89987
G1 X120.335 Y40.845 E3.90855
G1 X121.055 Y41.565 E3.91977
G1 X121.565 Y42.165 E3.92845
G1 X121.945 Y42.655 E3.93528
G1 X122.265 Y43.175 E3.94201
G1 X122.835 Y44.195 E3.95488
G1 X123.155 Y44.855 E3.96296
G1 X143.815 Y94.565 E4.55609
G1 X144.065 Y95.275 E4.56438
G1 X144.225 Y96.005 E4.57262
G1 X144.535 Y97.965 E4.59448
G1 X144.615 Y98.955 E4.60542
G1 X144.535 Y99.935 E4.61626
G1 X144.225 Y101.905 E4.63823
G1 X143.985 Y102.895 E4.64945
G1 X143.595 Y103.835 E4.66067
G1 X142.675 Y105.615 E4.68274
G1 X142.165 Y106.435 E4.69338
G1 X141.525 Y107.175 E4.70416
G1 X109.665 Y139.045 E5.20068
G1 X108.915 Y139.695 E5.21161
G1 X108.065 Y140.215 E5.22259
G1 X106.295 Y141.115 E5.24447
G1 X105.375 Y141.495 E5.25544
G1 X104.405 Y141.725 E5.26642
G1 X102.435 Y142.035 E5.28839
G1 X101.455 Y142.115 E5.29923
G1 X100.465 Y142.035 E5.31017
G1 X98.505 Y141.725 E5.33204
G1 X97.545 Y141.495 E5.34291
G1 X96.625 Y141.115 E5.35388
G1 X94.855 Y140.215 E5.37576
G1 X65.745 Y124.795 E5.73871
G1 X64.535 Y123.955 E5.75494
G1 X63.545 Y122.865 E5.77117
G1 X62.835 Y121.575 E5.78739
G1 X51.495 Y93.465 E6.12136
G1 X36.035 Y53.005 E6.59859
G1 X35.825 Y52.365 E6.60601
G1 X35.695 Y51.715 E6.61331
G1 X35.455 Y50.165 E6.63059
G1 X35.375 Y49.195 E6.64132
G1 X35.455 Y48.225 E6.65204
G1 X35.695 Y46.685 E6.66921
G1 X35.925 Y45.705 E6.68030
G1 X36.315 Y44.775 E6.69141
G1 X37.025 Y43.385 E6.70861
G1 X37.535 Y42.545 E6.71944
G1 X38.185 Y41.795 E6.73037
G1 X39.260 Y40.720 E6.74713
G1 F2700.000 E3.74713
G92 E0
G1 X60.147 Y49.211 F7200.000
G1 F2700.000 E3.00000
M204 S1500
G1 X60.603 Y48.315 F900.000 E3.01108
G1 X61.315 Y47.603 E3.02217
G1 X62.211 Y47.147 E3.03325
G1 X63.205 Y46.989 E3.04434
G1 X64.199 Y47.147 E3.05542
G1 X65.095 Y47.603 E3.06651
G1 X65.807 Y48.315 E3.07759
G1 X66.263 Y49.211 E3.08868
G1 X66.421 Y50.205 E3.09976
G1 X66.263 Y51.199 E3.11085
G1 X65.807 Y52.095 E3.12193
G1 X65.095 Y52.807 E3.13302
G1 X64.199 Y53.263 E3.14410
G1 X63.205 Y53.421 E3.15519
G1 X62.211 Y53.263 E3.16627
G1 X61.315 Y52.807 E3.17736
G1 X60.603 Y52.095 E3.18844
G1 X60.147 Y51.199 E3.19953
G1 X59.989 Y50.205 E3.21061
G1 X60.139 Y49.260 E3.22116
M204 S3000
G1 X59.941 Y48.957 F7200.000
G1 F2700.000 E0.22116
G92 E0
G1 X67.133 Y48.705 F7200.000
G1 F2700.000 E3.00000
M204 S1500
G1 X67.518 Y47.520 F900.000 E3.01373
G1 X68.526 Y46.788 E3.02746
G1 X69.772 Y46.788 E3.04119
G1 X70.781 Y47.520 E3.05491
G1 X71.166 Y48.705 E3.06864
G1 X70.781 Y49.890 E3.08237
G1 X69.773 Y50.622 E3.09610
G1 X68.526 Y50.622 E3.10983
G1 X67.518 Y49.890 E3.12356
G1 X67.149 Y48.752 E3.13674
M204 S3000
G1 X67.477 Y48.705 F7200.000
M204 S1500
G1 X67.797 Y47.722 F900.000 E3.14813
G1 X68.633 Y47.115 E3.15952
G1 X69.666 Y47.115 E3.17090
G1 X70.502 Y47.722 E3.18229
G1 X70.822 Y48.705 E3.19367
G1 X70.502 Y49.688 E3.20506
G1 X69.666 Y50.295 E3.21644
G1 X68.633 Y50.295 E3.22783
G1 X67.797 Y49.688 E3.23922
G1 X67.493 Y48.752 E3.25006
M204 S3000
G1 X67.213 Y48.513 F7200.000
G1 F2700.000 E0.25006
G92 E0
G1 X80.833 Y48.705 F7200.000
G1 F2700.000 E3.00000
M204 S1500
G1 X81.218 Y47.520 F900.000 E3.01373
G1 X82.227 Y46.788 E3.02746
G1 X83.472 Y46.788 E3.04119
G1 X84.481 Y47.520 E3.05491
G1 X84.866 Y48.705 E3.06864
G1 X84.481 Y49.890 E3.08237
G1 X83.472 Y50.622 E3.09610
G1 X82.227 Y50.622 E3.10983
G1 X81.218 Y49.890 E3.12356
G1 X80.849 Y48.752 E3.13674
M204 S3000
G1 X81.177 Y48.705 F7200.000
M204 S1500
G1 X81.497 Y47.722 F900.000 E3.14813
G1 X82.333 Y47.115 E3.15952
G1 X83.366 Y47.115 E3.17090
G1 X84.202 Y47.722 E3.18229
G1 X84.522 Y48.705 E3.19367
G1 X84.202 Y49.688 E3.20506
G1 X83.366 Y50.295 E3.21644
G1 X82.333 Y50.295 E3.22783
G1 X81.497 Y49.688 E3.23921
G1 X81.193 Y48.752 E3.25006
M204 S3000
G1 X80.913 Y48.513 F7200.000
G1 F2700.000 E0.25006
G92 E0
G1 X89.658 Y50.205 F7200.000
G1 F2700.000 E3.00000
M204 S1500
G1 X89.832 Y49.109 F900.000 E3.01223
G1 X90.335 Y48.120 E3.02445
G1 X91.120 Y47.335 E3.03668
G1 X92.109 Y46.832 E3.04891
G1 X93.205 Y46.658 E3.06113
G1 X94.301 Y46.832 E3.07336
G1 X95.290 Y47.335 E3.08559
G1 X96.075 Y48.120 E3.09782
G1 X96.578 Y49.109 E3.11004
G1 X96.752 Y50.205 E3.12227
G1 X96.578 Y51.301 E3.13450
G1 X96.075 Y52.290 E3.14672
G1 X95.290 Y53.075 E3.15895
G1 X94.301 Y53.578 E3.17118
G1 X93.205 Y53.752 E3.18340
G1 X92.109 Y53.578 E3.19563
G1 X91.120 Y53.075 E3.20786
G1 X90.335 Y52.290 E3.22009
G1 X89.832 Y51.301 E3.23231
G1 X89.666 Y50.253 E3.24400
M204 S3000
G1 X89.989 Y50.205 F7200.000
M204 S1500
G1 X90.147 Y49.211 F900.000 E3.25508
G1 X90.603 Y48.315 E3.26617
G1 X91.315 Y47.603 E3.27725
G1 X92.211 Y47.147 E3.28834
G1 X93.205 Y46.989 E3.29942
G1 X94.199 Y47.147 E3.31051
G1 X95.095 Y47.603 E3.32159
G1 X95.807 Y48.315 E3.33268
G1 X96.263 Y49.211 E3.34376
G1 X96.421 Y50.205 E3.35485
G1 X96.263 Y51.199 E3.36593
G1 X95.807 Y52.095 E3.37702
G1 X95.095 Y52.807 E3.38810
G1 X94.199 Y53.263 E3.39919
G1 X93.205 Y53.421 E3.41027
G1 X92.211 Y53.263 E3.42136
G1 X91.315 Y52.807 E3.43244
G1 X90.603 Y52.095 E3.44353
G1 X90.147 Y51.199 E3.45461
G1 X89.997 Y50.253 E3.46516
M204 S3000
G1 X89.715 Y50.027 F7200.000
G1 F2700.000 E0.46516
G92 E0
G1 X100.214 Y53.714 F7200.000
G1 F2700.000 E3.00000
M204 S1500
G1 X110.184 Y53.714 F1800.000 E3.10984
G1 X113.047 Y58.209 E3.16857
G1 X117.095 Y65.985 E3.26516
G1 X120.450 Y74.085 E3.36175
G1 X123.087 Y82.446 E3.45834
G1 X124.984 Y91.005 E3.55493
G1 X125.304 Y93.431 E3.58190
G1 X116.705 Y93.806 E3.67673
G1 X102.717 Y93.195 E3.83100
G1 X102.494 Y93.166 E3.83347
G1 X102.485 Y93.273 E3.83465
G1 X101.465 Y93.112 E3.84603
G1 X100.214 Y93.310 E3.85999
G1 X100.214 Y53.763 E4.29572
M204 S3000
G1 X100.541 Y54.041 F7200.000
M204 S1500
G1 X110.004 Y54.041 F1260.000 E4.39998
G1 X112.764 Y58.373 E4.45657
G1 X116.798 Y66.124 E4.55285
G1 X120.142 Y74.197 E4.64912
G1 X122.770 Y82.531 E4.74540
G1 X124.661 Y91.062 E4.84168
G1 X124.933 Y93.120 E4.86455
G1 X116.705 Y93.479 E4.95529
G1 X102.746 Y92.869 E5.10924
G1 X102.197 Y92.797 E5.11533
G1 X102.189 Y92.895 E5.11642
G1 X101.465 Y92.781 E5.12450
G1 X100.541 Y92.927 E5.13480
G1 X100.541 Y54.090 E5.56270
M204 S3000
G1 X100.541 Y53.714 F7200.000
G1 F2700.000 E2.56270
G92 E0
G1 X128.494 Y95.765 F7200.000
G1 F2700.000 E3.00000
M204 S1500
G1 X129.750 Y95.003 F900.000 E3.01619
G1 X131.203 Y94.779 E3.03239
G1 X132.615 Y95.125 E3.04840
G1 X135.363 Y96.406 E3.08181
G1 X136.535 Y97.265 E3.09782
G1 X137.297 Y98.522 E3.11402
G1 X137.521 Y99.975 E3.13021
G1 X137.171 Y101.402 E3.14640
G1 X136.302 Y102.587 E3.16260
G1 X135.046 Y103.350 E3.17879
G1 X133.593 Y103.573 E3.19498
G1 X132.182 Y103.228 E3.21100
G1 X129.434 Y101.947 E3.24440
G1 X128.262 Y101.087 E3.26042
G1 X127.499 Y99.831 E3.27661
G1 X127.275 Y98.378 E3.29280
G1 X127.625 Y96.951 E3.30900
G1 X128.465 Y95.805 E3.32465
M204 S3000
G1 X128.444 Y95.442 F7200.000
G1 X106.817 Y98.522
M204 S1500
G1 X107.041 Y99.975 F900.000 E3.34084
G1 X106.691 Y101.402 E3.35704
G1 X105.822 Y102.587 E3.37323
G1 X104.566 Y103.350 E3.38942
G1 X103.113 Y103.573 E3.40562
G1 X101.702 Y103.228 E3.42163
G1 X98.954 Y101.947 E3.45504
G1 X97.782 Y101.087 E3.47105
G1 X97.019 Y99.831 E3.48725
G1 X96.795 Y98.378 E3.50344
G1 X97.145 Y96.951 E3.51963
G1 X98.014 Y95.765 E3.53583
G1 X99.270 Y95.003 E3.55202
G1 X100.723 Y94.779 E3.56821
G1 X102.135 Y95.125 E3.58423
G1 X104.883 Y96.406 E3.61764
G1 X106.055 Y97.265 E3.63365
G1 X106.792 Y98.480 E3.64930
M204 S3000
G1 X107.135 Y98.600 F7200.000
G1 F2700.000 E0.64930
G92 E0
G1 X100.723 Y125.259 F7200.000
G1 F2700.000 E3.00000
M204 S1500
G1 X102.135 Y125.605 F900.000 E3.01601
G1 X104.883 Y126.886 E3.04942
G1 X106.055 Y127.745 E3.06543
G1 X106.817 Y129.002 E3.08163
G1 X107.041 Y130.455 E3.09782
G1 X106.691 Y131.882 E3.11402
G1 X105.822 Y133.067 E3.13021
G1 X104.566 Y133.830 E3.14640
G1 X103.113 Y134.053 E3.16260
G1 X101.702 Y133.708 E3.17861
G1 X98.954 Y132.427 E3.21202
G1 X97.782 Y131.567 E3.22803
G1 X97.019 Y130.311 E3.24422
G1 X96.795 Y128.858 E3.26042
G1 X97.145 Y127.431 E3.27661
G1 X98.014 Y126.245 E3.29280
G1 X99.270 Y125.483 E3.30900
G1 X100.674 Y125.267 E3.32465
M204 S3000
G1 X100.916 Y124.995 F7200.000
G1 X100.738 Y124.926
M204 S1500
G1 X99.156 Y125.169 F1800.000 E3.34228
G1 X97.789 Y125.999 E3.35991
G1 X96.842 Y127.290 E3.37753
G1 X96.462 Y128.844 E3.39516
G1 X96.706 Y130.425 E3.41279
G1 X97.536 Y131.793 E3.43042
G1 X98.786 Y132.710 E3.44750
G1 X101.593 Y134.018 E3.48162
G1 X103.099 Y134.387 E3.49871
G1 X104.512 Y134.169 E3.51446
G1 X104.570 Y134.350 E3.51656
G1 X103.273 Y135.011 E3.53260
G1 X101.465 Y135.298 E3.55277
G1 X99.657 Y135.011 E3.57295
G1 X98.025 Y134.180 E3.59312
G1 X96.730 Y132.885 E3.61330
G1 X95.803 Y131.067 E3.63578
G1 X95.754 Y131.085 E3.63636
G1 X93.086 Y124.644 E3.71318
G1 X89.999 Y118.714 E3.78684
G1 X69.196 Y118.714 E4.01605
G1 X69.196 Y103.870 E4.17961
G1 X69.297 Y103.840 E4.18077
G1 X70.081 Y105.048 E4.19664
G1 X70.848 Y105.995 E4.21006
G1 X71.710 Y106.856 E4.22349
G1 X72.657 Y107.623 E4.23691
G1 X73.679 Y108.287 E4.25034
G1 X74.764 Y108.840 E4.26377
G1 X75.902 Y109.277 E4.27719
G1 X77.079 Y109.592 E4.29062
G1 X78.283 Y109.783 E4.30404
G1 X79.499 Y109.846 E4.31747
G1 X80.716 Y109.783 E4.33090
G1 X81.920 Y109.592 E4.34432
G1 X83.097 Y109.277 E4.35775
G1 X84.235 Y108.840 E4.37117
G1 X85.320 Y108.287 E4.38460
G1 X86.342 Y107.623 E4.39803
G1 X87.289 Y106.856 E4.41145
G1 X88.151 Y105.995 E4.42488
G1 X88.918 Y105.048 E4.43830
G1 X89.581 Y104.026 E4.45173
G1 X90.134 Y102.940 E4.46515
G1 X90.571 Y101.802 E4.47858
G1 X90.887 Y100.625 E4.49201
G1 X91.077 Y99.422 E4.50543
G1 X91.141 Y98.205 E4.51886
G1 X91.077 Y96.988 E4.53228
G1 X90.887 Y95.785 E4.54571
G1 X90.571 Y94.608 E4.55914
G1 X90.134 Y93.470 E4.57256
G1 X89.581 Y92.384 E4.58599
G1 X88.918 Y91.362 E4.59941
G1 X88.151 Y90.415 E4.61284
G1 X87.289 Y89.554 E4.62627
G1 X86.342 Y88.787 E4.63969
G1 X85.320 Y88.123 E4.65312
G1 X84.235 Y87.570 E4.66654
G1 X83.097 Y87.133 E4.67997
G1 X81.920 Y86.818 E4.69339
G1 X80.716 Y86.627 E4.70682
G1 X79.499 Y86.564 E4.72025
G1 X78.283 Y86.627 E4.73367
G1 X77.079 Y86.818 E4.74710
G1 X75.902 Y87.133 E4.76052
G1 X74.764 Y87.570 E4.77395
G1 X73.679 Y88.123 E4.78738
G1 X72.657 Y88.787 E4.80080
G1 X71.710 Y89.554 E4.81423
G1 X70.848 Y90.415 E4.82765
G1 X70.081 Y91.362 E4.84108
G1 X69.297 Y92.570 E4.85695
G1 X69.196 Y92.540 E4.85811
G1 X69.196 Y60.192 E5.21452
G1 X69.161 Y59.526 E5.22186
G1 X69.055 Y58.855 E5.22935
G1 X68.879 Y58.199 E5.23684
G1 X68.635 Y57.565 E5.24432
G1 X68.327 Y56.959 E5.25181
G1 X67.957 Y56.389 E5.25930
G1 X67.529 Y55.861 E5.26678
G1 X67.049 Y55.381 E5.27427
G1 X66.521 Y54.953 E5.28176
G1 X65.951 Y54.583 E5.28924
G1 X65.345 Y54.275 E5.29673
G1 X64.711 Y54.031 E5.30422
G1 X63.856 Y53.802 E5.31397
G1 X63.864 Y53.648 E5.31567
G1 X64.301 Y53.578 E5.32055
G1 X65.290 Y53.075 E5.33278
G1 X66.075 Y52.290 E5.34500
G1 X66.578 Y51.301 E5.35723
G1 X66.752 Y50.205 E5.36946
G1 X66.578 Y49.109 E5.38168
G1 X66.075 Y48.120 E5.39391
G1 X65.290 Y47.335 E5.40614
G1 X64.301 Y46.832 E5.41837
G1 X63.205 Y46.658 E5.43059
G1 X62.109 Y46.832 E5.44282
G1 X61.120 Y47.335 E5.45505
G1 X60.335 Y48.120 E5.46727
G1 X59.832 Y49.109 E5.47950
G1 X59.658 Y50.205 E5.49173
G1 X59.832 Y51.301 E5.50395
G1 X60.335 Y52.290 E5.51618
G1 X61.120 Y53.075 E5.52841
G1 X62.113 Y53.580 E5.54069
G1 X62.081 Y53.714 E5.54220
G1 X46.744 Y53.714 E5.71119
G1 X45.313 Y53.488 E5.72714
G1 X44.058 Y52.848 E5.74267
G1 X43.062 Y51.852 E5.75819
G1 X42.422 Y50.597 E5.77371
G1 X42.202 Y49.205 E5.78924
G1 X42.422 Y47.813 E5.80476
G1 X43.062 Y46.558 E5.82028
G1 X44.058 Y45.562 E5.83581
G1 X45.313 Y44.922 E5.85133
G1 X46.744 Y44.696 E5.86728
G1 X112.666 Y44.696 E6.59362
G1 X114.097 Y44.922 E6.60958
G1 X114.291 Y45.021 E6.61198
G1 X114.427 Y45.048 E6.61350
G1 X114.694 Y45.227 E6.61704
G1 X115.352 Y45.562 E6.62518
G1 X115.664 Y45.874 E6.63004
G1 X115.887 Y46.023 E6.63300
G1 X116.036 Y46.246 E6.63596
G1 X116.348 Y46.558 E6.64082
G1 X116.683 Y47.216 E6.64895
G1 X116.862 Y47.483 E6.65249
G1 X116.889 Y47.619 E6.65402
G1 X116.988 Y47.814 E6.65642
G1 X117.208 Y49.205 E6.67194
G1 X117.112 Y49.810 E6.67870
G1 X117.239 Y49.814 E6.68009
G1 X117.192 Y50.899 E6.69206
G1 X117.422 Y56.171 E6.75020
G1 X118.111 Y61.403 E6.80835
G1 X119.252 Y66.555 E6.86649
G1 X120.839 Y71.588 E6.92464
G1 X122.860 Y76.464 E6.98278
G1 X125.296 Y81.145 E7.04092
G1 X128.132 Y85.596 E7.09908
G1 X131.344 Y89.782 E7.15721
G1 X134.910 Y93.672 E7.21536
G1 X135.652 Y94.352 E7.22645
G1 X135.581 Y94.426 E7.22758
G1 X136.680 Y95.525 E7.24471
G1 X137.511 Y97.157 E7.26488
G1 X137.678 Y98.205 E7.27658
G1 X137.522 Y98.262 E7.27840
G1 X136.781 Y97.040 E7.29415
G1 X135.530 Y96.123 E7.31124
G1 X132.724 Y94.814 E7.34536
G1 X131.218 Y94.446 E7.36244
G1 X129.636 Y94.689 E7.38007
G1 X128.269 Y95.519 E7.39770
G1 X127.322 Y96.810 E7.41533
G1 X126.942 Y98.364 E7.43295
G1 X127.186 Y99.945 E7.45058
G1 X128.016 Y101.313 E7.46821
G1 X129.266 Y102.230 E7.48530
G1 X132.073 Y103.538 E7.51941
G1 X133.579 Y103.907 E7.53650
G1 X134.992 Y103.689 E7.55225
G1 X135.050 Y103.870 E7.55435
G1 X133.753 Y104.531 E7.57039
G1 X131.945 Y104.818 E7.59056
G1 X130.137 Y104.531 E7.61074
G1 X128.325 Y103.609 E7.63314
G1 X127.823 Y103.247 E7.63996
G1 X126.053 Y102.227 E7.66246
G1 X124.192 Y101.387 E7.68497
G1 X122.255 Y100.736 E7.70747
G1 X120.263 Y100.281 E7.72999
G1 X118.237 Y100.027 E7.75249
G1 X116.194 Y99.976 E7.77501
G1 X114.157 Y100.128 E7.79751
G1 X112.146 Y100.483 E7.82001
G1 X110.178 Y101.036 E7.84253
G1 X108.277 Y101.783 E7.86504
G1 X106.210 Y102.842 E7.89063
G1 X106.119 Y102.736 E7.89217
G1 X106.994 Y101.543 E7.90846
G1 X107.374 Y99.989 E7.92609
G1 X107.131 Y98.408 E7.94372
G1 X106.301 Y97.040 E7.96135
G1 X105.050 Y96.123 E7.97843
G1 X102.244 Y94.814 E8.01255
G1 X100.738 Y94.446 E8.02964
G1 X99.156 Y94.689 E8.04727
G1 X97.789 Y95.519 E8.06489
G1 X96.842 Y96.810 E8.08252
G1 X96.462 Y98.364 E8.10015
G1 X96.706 Y99.945 E8.11778
G1 X97.536 Y101.313 E8.13540
G1 X98.786 Y102.230 E8.15249
G1 X101.593 Y103.538 E8.18661
G1 X103.099 Y103.907 E8.20369
G1 X104.680 Y103.663 E8.22132
G1 X105.554 Y103.133 E8.23259
G1 X105.641 Y103.216 E8.23391
G1 X104.499 Y105.314 E8.26023
G1 X103.705 Y107.197 E8.28274
G1 X103.103 Y109.149 E8.30525
G1 X102.698 Y111.151 E8.32776
G1 X102.495 Y113.184 E8.35026
G1 X102.495 Y115.226 E8.37277
G1 X102.698 Y117.259 E8.39528
G1 X103.103 Y119.261 E8.41779
G1 X103.705 Y121.213 E8.44029
G1 X104.499 Y123.096 E8.46281
G1 X105.476 Y124.890 E8.48532
G1 X106.095 Y125.798 E8.49743
G1 X107.031 Y127.637 E8.52016
G1 X107.198 Y128.685 E8.53186
G1 X107.042 Y128.742 E8.53368
G1 X106.301 Y127.520 E8.54943
G1 X105.050 Y126.603 E8.56652
G1 X102.244 Y125.294 E8.60063
G1 X100.785 Y124.938 E8.61718
M204 S3000
G1 X104.794 Y122.954 F7200.000
M204 S1500
G1 X105.755 Y124.719 F1260.000 E8.63932
G1 X106.438 Y125.720 E8.65267
G1 X106.426 Y125.728 E8.65282
G1 X107.346 Y127.534 E8.67515
G1 X107.649 Y129.445 E8.69647
G1 X107.346 Y131.356 E8.71779
G1 X106.468 Y133.080 E8.73910
G1 X105.100 Y134.448 E8.76042
